X:96
T:Galway Bay
R:hornpipe
S:Jonas Lindholm
Z:id:hn-hornpipe-96
M:C|
K:Gdor
GA|BABc dcdf|gfdf gabg|fdbg fdcd|BGGA GFDF|
~G3A BABG|FEFG AGFD|GABc dcAc|(3BcB G2 G2:|
|:za|gfdf gabg|gfd_e dBGA|BABc dcd=e|fcdB AGFA|
(3BcB dB AFcA|BFdB AF_ec|dfga bagf|d2 (3ggg g2:|
<end>
<start>
